X:1
T:Fantasia (5)
T:Fantasia (5)
T:22. Juni 1680 from "Fantasias for Strings", Book 1 
T:Henry Purcell (1659-1695)
T:Z. 739
C:Henry Purcell (1659-1695)
Z:Z. 739
%%score [ 1 2 3 4 ]
L:1/8
Q:1/2=53
M:4/2
K:F
V:1 treble nm="Diskantgambe"
V:2 treble nm="Altgambe"
V:3 alto nm="Tenorgambe"
V:4 bass nm="Gambe"
V:1
 z8!f! A4 d4- | d2 e2 f2 ed ^c8 | z4 d4 A6 G2 | F2 GA B6 A2 G2 FE | ^C4 D4 E4 A4- | %5
 A2 B2 c2 =BA ^G8 | A4 z4 D4 d4- | d2 e2 f2 ed ^c2 !courtesy!=B2 =c4 | =B4 A4 d4 G4- | %9
 G2 F2 E2 FG A2 =B2 c4 | d4 g6 a2 b2 ag | e6 f2 g8 | g4 c12- | c4 B4 A4 B2 c2 | d12 c2 B2 | %15
 A4 g4 d6 c2 | B2 cd _e6 d2 c2 de | f2 _e4 d2 e2 G2 c4- | c2 d2 _e2 dc A4 d4- | %19
 d2 e2 f2 ed ^c2 d2 e4- | e2 A2 d8 ^c4 | d4 z2!p! A2 A2 A2 B4- | B2 A2 f6 e2 d4- | %23
 d2 d2 c6 c2 B4- | B2 B2 A4 G8 | A4 z2 c2 c2 c2 f4- | f2 f2 ^f2 f2 g6 ^g2 | a2 e2 f6 ^c2 d2 A2 | %28
 B6 B2 =B2 B2 c4- | c2 =BA ^G6 ^FE A4- | A4 ^G4 A2 e2 f2 g2 | %31
 ^c2 e2 A2 d2 G2 c2[Q:1/2=53] F4[Q:1/2=52]"^.6" | %32
[Q:1/2=51]"^.1" E8 z8[Q:1/2=48][Q:1/2=45]"^.8"[Q:1/2=43][Q:1/4=159]"^Brisk\n (Lebhaft)\n" | %33
 z4!f! A2 e4 d2 e^c/d/ ec | d4 z4 d2 a4 g2 | ae/f/ ge f2 e3 d c=B A4 | %36
 G2 g4 ^f2 gd/e/ !courtesy!=fd _e4 | d4 c2 G2 c6 =B2 | cd/_e/ fd c4 B6 B2 | _A4 G4- GF F4 =E2 | %40
 F2 c2 G4 _A2 Gc/B/ Ac B2- | B2 c>_d B3 _A A2 c2 d2 _e2- | e2 f2 c2 f2 ^f2!>(! g2 A2 d2 | %43
 ^d2 e2 ^F2[Q:1/2=79]"^.5" =B2[Q:1/2=76]"^.3" B2[Q:1/2=71]"^.4" c2[Q:1/2=65]"^.5" ^G2[Q:1/2=58]"^.8" A2 | %44
[Q:1/2=51]"^.5" D4!>)![Q:1/2=35]"^.3"!p! C2[Q:1/4=53]"^Slow \n(Langsam)\n"!f! G2 c6 d>A[Q:1/2=43]"^.6" | %45
 _B6 A>E F6 E>D | B6 c>d ^F>E D2 Cc[Q:1/2=26]"^.5" B2 | %47
[Q:1/2=24]"^.2" !fermata!A16[Q:1/2=20]"^.7"[Q:1/2=18]"^.7"[Q:1/2=16]"^.5" |] %48
V:2
 z16 |!f! D4 G6 A2 B2 AG | F8- F2 E2 D2 ^C2 | D8- DE F2 E4- | E2 D2 D8 ^C4 | F8 E8 | %6
 E4 A6 =B2 c2 BA | ^G8 A6 !courtesy!=G2 | F2 E2 F8 z4 | C4 c6 d2 _e2 dc | =B4 c8 B4 | %11
 c2 G2 C6 C2 D2 d2 | G6 F2 E2 FG _A4 | G8 c4 F4- | F2 E2 D2 E^F G4 A2 G2 | ^F4 G8 F4 | %16
 d4 G6 F2 _E2 FG | _A2 G2 F4 G6 F2 | _E8 D6 A,2 | D6 E2 F2 ED ^C4 | D2 EF G4 E8 | %21
 ^F8 z2!p! =F2 F2 F2 | G6 FG A6 G2 | F4 E4 D4 G4- | G2 G2 F8 E4 | F8 z4 z2 F2 | F2 F2 B2 c2 d6 d2 | %27
 c2 B2 A6 G2 F2 E2 | D6 D2 D2 D2 C4- | C2 C2 D4 E6 ^F2 | G2 !courtesy!=F2 E2 D2 ^C2 ^c2 d2 e2 | %31
 A2 G4 F4 E4 D2- | D2 ^C!courtesy!=B, C4 z8 | z8 z2!f! D2 A4- | A2 G2 AE/F/ GE F6 ED | %35
 E4 =B,4 A2 e4 d2 | e=B/c/ dB c4 B6 AG | F2 D2 G,2 G4 F2 GD/_E/ FD | _E2 DB, C2 E4 D2 EB,/C/ _DB, | %39
 C2 B,3 C_DE F2 D2 C4- | C3 C _D2 C4 C2 F4 | _E2 _A4 G2 A2 _e2 B4 | =A2 B4 A4!>(! G4 ^F2- | %43
 F2 E4 D4 C2 =B,2 A,2 | G,4!>)!!p! G,4 z2!f! G2 A4- | A2 G>F E6 D>^C D4- | %46
 D2 E>^F G2 A2 _B2 c>d F2 G2- | G2 ^FE !fermata!F12 |] %48
V:3
!f! D4 A,6 G,2 F,2 G,A, | B,8 A,8 | D,16 | D4 G6 A2 B2 AG | F8 E8 | D4- DEDC =B,8 | %6
 A,6 E2 F4- FGFE | D8 E4 A,4- | A,2 G,2 F,2 G,A, B,8 | A,4 G,4 F,4 F4- | F4 _E4 D8 | C4 c4 G6 F2 | %12
 E2 FG _A4 G4 F4- | F4 E4 F2 _E2 D2 C2 | B,4 G6 F2 _E4- | E2 DC B,2 B2 A4 D4- | %16
 D2 C2 B,2 CD _E6 E2 | D2 B4 _A2 G2 F2 _E4- | E2 D2 C2 B,A, ^F,6 F,2 | G,4 D4 A,6 G,2 | %20
 F,2 G,A, B,4 A,8 | A,8 z2!p! D2 D2 D2 | E6 DE F6 ED | A,4 A6 A2 G2 F2 | E4 C8 B,4 | %25
 A,2 C2 C2 C2 F2 A,2 A,2 A,2 | D6 D2 D2 D2 E4- | E2 E2 A2 G2 F2 E2 D4- | %28
 D2 C2 B,2 A,2 G,2 G2 G2 G2 | A2 A,2 =B,6 A,^G, C4 | =B,8 A,2 A4 G2 | F2 E4 D4 ^C4 D2 | %32
 A,8 z2!f! E2 A4- | A2 G2 AE/F/ GE F4 E2 A,2 | B,4 A,6 A,2 D4- | %35
 D2 ^C2 D=B,/C/ DB, !courtesy!=C4- CB, A,2 | =B,2 G,2 A,4 G,2 D4 C2 | DD/E/ FD _E6 DC D2 G,2 | %38
 G2 B4 A2 BF/G/ _AF G4 | F4 _E2 _DC/B,/ _A,3 B, G,4 | _A,3 A, B,2 C2 F4 F,4 | %41
 G,2 _A,2 B,C _D2 C2 _E2 F2 B,2 | C2 D2 C6!>(! =B,2 A,4- | A,2 G,2 ^F,2 ^F2 E4 D2 C2- | %44
 C2 =B,2!>)!!p! C4 z2!f! _E2 D4- | D2 D2 G2 G,2 A,6 G,>^F, | G,2 D4 C4 _B,2 A,2 G,2 | %47
 !fermata!D16 |] %48
V:4
 z16 | z16 |!f! D4 A,6 G,2 F,2 G,A, | B,6 A,2 G,4 G,,4 | A,,12 A,,4 | D,8- D,2 E,2 F,2 E,D, | %6
 ^C,8 D,6 !courtesy!=C,2 | =B,,8 A,,4 A,4 | D,6 C,2 B,,2 C,D, _E,3 D, | C,6 B,,2 A,,4 _A,,4 | %10
 G,,12 G,,4 | C,6 D,2 _E,2 D,C, =B,,4 | C,16- | C,8 F,,4 F,4 | B,,6 A,,2 G,,2 A,,B,, C,4 | %15
 D,12 D4 | G,6 F,2 _E,2 F,G, _A,2 G,2 | F,2 G,_A, B,4 _E,6 D,2 | C,12 B,,2 A,,2 | B,,8 A,,8- | %20
 A,,4 G,,4 A,,8 | D,,8 z2!p! D,2 D,2 D,2 | ^C,6 D,2 F,,6 G,,2 | A,,6 A,,2 B,,6 B,,2 | C,16 | %25
 F,,8 z2 F,2 F,2 F,2 | B,6 B,2 =B,2 B,2 C4- | C2 ^C2 D2 A,2 B,6 ^F,2 | G,2 D,2 _E,6 E,2 =E,2 E,2 | %29
 F,6 E,D, C,6 =B,,A,, | E,,8 A,,8- | A,,8- A,,8 | A,,4 z2!f! A,2 D2 ^C2 DA,/B,/ !courtesy!=CA, | %33
 B,2 B,,2 A,,8- A,,2 A,,2 | D,6 ^C,2 D,A,,/B,,/ !courtesy!=C,A,, B,,4 | %35
 A,,2 A,4 ^G,2 A,E,/F,/ !courtesy!=G,E, F,4 | E,4 D,4 G,4 G,,2 C,2- | %37
 C,2 =B,,2 C,G,,/A,,/ !courtesy!_B,,G,, _A,,4 G,,4 | C,2 D,2 F,4 B,,4 _E,4- | %39
 E,2 D,2 !courtesy!_E,2 B,,C, _D,2 B,,2 C,4 | F,,2 F,4 =E,2 F,C,/D,/ !courtesy!_E,C, _D,4 | %41
 C,2 _A,,2 _E,4 A,,2 !courtesy!_A,4 _G,2 | F,2 D,2 F,4 D,2!>(! =B,,2 D,4 | %43
 =B,,2 G,,2 B,,4 ^G,,2 A,,2 E,,2 F,,2 | G,,4!>)!!p! C,4 z2!f! C2 ^F,4- | %45
 F,2 G,2 ^C,6 D,>A,, B,,4- | B,,2 A,,>G,, _E,4 D,8 | !fermata!D,,16 |] %48

